X: 7
T:Holiday Fancy (#83)
M:2/4
L:1/8
S:Sergt. James O'Neill manuscripts
K:G
D|GG BB|dc/2B/2 A/2c/2B/2A/2|GG BB|AF/2E/2 D/2E/2F/2D/2|
GG BB|dc/2B/2 A/2c/2B/2A/2|GG AF|G2 G||
d|gg gd/2B/2|dc/2B/2 A/2c/2B/2A/2|GG BB|AF/2D/2 Dd|
gg gd/2B/2|dc/2B/2 A/2c/2B/2A/2|Bd de|dc BA||
GG BB|dc/2B/2 A/2c/2B/2A/2|GG BB|GF/2E/2 D/2E/2F/2D/2|
GG BB|dc/2B/2 A/2c/2B/2A/2|GG AF|G2 G||
d|cA AB/2c/2|dd de/2f/2|gf ag|fd d/2f/2e/2d/2|
cA AB/2c/2|dd de/2f/2|ge d^c|d=c BA||
%
% This spirited tune was found among the O'Neill manuscript
% but without a title. With a view to its identification in the
% Index we have named it.

